dapp/src/images/attention-triangle-icon.svg

<svg fill="none" height="15" viewBox="0 0 17 15" width="17" xmlns="http://www.w3.org/2000/svg"><path d="m16.3655 12.9244-7.18156-12.401734c-.18153-.313433-.50735-.5050879-.8589-.5050879-.35151 0-.67739.1916219-.85888.5050879l-7.181477 12.401734c-.1867722.3226-.1923031.7249-.014419 1.0529.177884.328.51156.5308.873276.5308h14.36306c.3617 0 .6953-.2029.8733-.5308.1778-.328.1723-.7303-.0144-1.0529zm-8.03511-8.6169c.41249 0 .76148.24229.76148.67174 0 1.31043-.14806 3.19355-.14806 4.50398 0 .34144-.35954.48453-.61342.48453-.33836 0-.62391-.14318-.62391-.48453 0-1.31043-.14803-3.19355-.14803-4.50398 0-.42945.33838-.67174.77194-.67174zm.01064 8.116c-.46533 0-.81436-.3964-.81436-.8479 0-.4626.349-.8479.81436-.8479.43353 0 .80371.3853.80371.8479 0 .4515-.37018.8479-.80371.8479z" fill="#ffc738"/></svg>

<svg width="17" height="15" viewBox="0 0 17 15" fill="none" xmlns="http://www.w3.org/2000/svg">
<path d="M16.3655 12.9244L9.18394 0.522666C9.00241 0.209233 8.67659 0.0175781 8.32504 0.0175781C7.97353 0.0175781 7.64765 0.2092 7.46616 0.522666L0.284683 12.9244C0.0979108 13.247 0.0923799 13.6493 0.270264 13.9773C0.448148 14.3053 0.781824 14.5081 1.14354 14.5081H15.5066C15.8683 14.5081 16.2019 14.3052 16.3799 13.9773C16.5577 13.6493 16.5522 13.247 16.3655 12.9244ZM8.33039 4.3075C8.74288 4.3075 9.09187 4.54979 9.09187 4.97924C9.09187 6.28967 8.94381 8.17279 8.94381 9.48322C8.94381 9.82466 8.58427 9.96775 8.33039 9.96775C7.99203 9.96775 7.70648 9.82457 7.70648 9.48322C7.70648 8.17279 7.55845 6.28967 7.55845 4.97924C7.55845 4.54979 7.89683 4.3075 8.33039 4.3075ZM8.34103 12.4235C7.8757 12.4235 7.52667 12.0271 7.52667 11.5756C7.52667 11.113 7.87567 10.7277 8.34103 10.7277C8.77456 10.7277 9.14474 11.113 9.14474 11.5756C9.14474 12.0271 8.77456 12.4235 8.34103 12.4235Z" fill="#FFC738"/>
</svg>
